X:1
T:the Gravel Walk
M:4/4
L:1/8
R:Reel
O:Ireland
K:A Dor
A2 eA BA eA|A2 eA BA GB|\
A2 eA Bd ef|ge dc BA GB:|\
A2 aA gA fA|A2 eA BA GB|\
A2 aA gA ef|gf ge dB GB|\
A2 aA gA fA|A2 eA BA GB|\
AB cd ef ga|ge dc BA GB|
|:\
cA AG A2 AB|cA (3AAA BG Bd|\
cA AG A2 ef|gf ge dB GB:|
|:\
c2 gc ac gc|c2 gc BA GB|\
c2 gc ac ga|ge dc BA GB|\
c2 gc ac gc|c2 gc BA GB |
AB cd eg fa|ge dc BA GB ||
